Automatic/src/svg/Fujitsu - FM Towns-content.svg

<svg xmlns="http://www.w3.org/2000/svg" xml:space="preserve" viewBox="0 0 256 256"><path d="M128 12c64.051 0 116 51.934 116 116s-51.949 116-116 116c-64.071 0-116-51.934-116-116S63.929 12 128 12m.002 160C152.265 172 172 152.261 172 128s-19.735-44-43.998-44C103.735 84 84 103.739 84 128s19.735 44 44.002 44M128 8C95.945 8 65.809 20.482 43.145 43.147S8 95.946 8 128s12.481 62.189 35.145 84.853C65.809 235.518 95.945 248 128 248c32.048 0 62.181-12.482 84.848-35.147C235.516 190.187 248 160.052 248 128s-12.484-62.187-35.152-84.853S160.048 8 128 8m.002 160C105.945 168 88 150.056 88 128s17.945-40 40.002-40C150.057 88 168 105.944 168 128s-17.943 40-39.998 40" style="fill:#fff"/><path d="M128.003 80C154.443 80 176 101.549 176 128s-21.557 48-47.997 48C101.537 176 80 154.451 80 128s21.537-48 48.003-48m.002 64c8.824 0 15.995-7.171 15.995-15.995 0-8.829-7.171-16.005-15.995-16.005-8.818 0-16.005 7.176-16.005 16.005 0 8.824 7.187 15.995 16.005 15.995m-.002-68C99.329 76 76 99.327 76 128s23.329 52 52.003 52C156.674 180 180 156.673 180 128s-23.326-52-51.997-52m.002 64c-6.62 0-12.005-5.381-12.005-11.995 0-6.62 5.386-12.005 12.005-12.005 6.614 0 11.995 5.386 11.995 12.005 0 6.614-5.381 11.995-11.995 11.995" style="fill:#fff"/></svg>

<?xml version="1.0" encoding="iso-8859-1"?>
<!-- Generator: Adobe Illustrator 28.1.0, SVG Export Plug-In . SVG Version: 6.00 Build 0)  -->
<svg version="1.1" id="Layer_1" xmlns="http://www.w3.org/2000/svg" xmlns:xlink="http://www.w3.org/1999/xlink" x="0px" y="0px"
	 viewBox="0 0 256 256" style="enable-background:new 0 0 256 256;" xml:space="preserve">
<path style="fill:#FFFFFF;" d="M128,12c64.051,0,116,51.934,116,116s-51.949,116-116,116c-64.071,0-116-51.934-116-116
	S63.929,12,128,12 M128.002,172C152.265,172,172,152.261,172,128s-19.735-44-43.998-44C103.735,84,84,103.739,84,128
	S103.735,172,128.002,172 M128,8C95.945,8,65.809,20.482,43.145,43.147C20.481,65.811,8,95.946,8,128s12.481,62.189,35.145,84.853
	C65.809,235.518,95.945,248,128,248c32.048,0,62.181-12.482,84.848-35.147C235.516,190.187,248,160.052,248,128
	s-12.484-62.187-35.152-84.853C190.181,20.482,160.048,8,128,8L128,8z M128.002,168C105.945,168,88,150.056,88,128
	s17.945-40,40.002-40C150.057,88,168,105.944,168,128S150.057,168,128.002,168L128.002,168z"/>
<path style="fill:#FFFFFF;" d="M128.003,80C154.443,80,176,101.549,176,128s-21.557,48-47.997,48C101.537,176,80,154.451,80,128
	S101.537,80,128.003,80 M128.005,144c8.824,0,15.995-7.171,15.995-15.995c0-8.829-7.171-16.005-15.995-16.005
	c-8.818,0-16.005,7.176-16.005,16.005C112,136.829,119.187,144,128.005,144 M128.003,76C99.329,76,76,99.327,76,128
	s23.329,52,52.003,52C156.674,180,180,156.673,180,128S156.674,76,128.003,76L128.003,76z M128.005,140
	c-6.62,0-12.005-5.381-12.005-11.995c0-6.62,5.386-12.005,12.005-12.005c6.614,0,11.995,5.386,11.995,12.005
	C140,134.619,134.619,140,128.005,140L128.005,140z"/>
</svg>
